icons/desktop/16/svg/signature-properties-16.svg

<svg width="16" height="16" viewBox="0 0 16 16" fill="none" xmlns="http://www.w3.org/2000/svg">
<path d="M3.75 11.0002C4.164 11.0002 4.5 11.3362 4.5 11.7502C4.5 12.1642 4.164 12.5002 3.75 12.5002H1.75C1.336 12.5002 1 12.1642 1 11.7502C1 11.3362 1.336 11.0002 1.75 11.0002H3.75Z" fill="black"/>
<path d="M9 11.0002C9.414 11.0002 9.75 11.3362 9.75 11.7502C9.75 12.1642 9.414 12.5002 9 12.5002H7C6.586 12.5002 6.25 12.1642 6.25 11.7502C6.25 11.3362 6.586 11.0002 7 11.0002H9Z" fill="black"/>
<path d="M14.25 11.0002C14.664 11.0002 15 11.3362 15 11.7502C15 12.1642 14.664 12.5002 14.25 12.5002H12.25C11.836 12.5002 11.5 12.1642 11.5 11.7502C11.5 11.3362 11.836 11.0002 12.25 11.0002H14.25Z" fill="black"/>
<path d="M4.49805 3.59001C5.03548 2.17625 7.02279 2.42153 7.32812 3.79118L7.35254 3.9279L7.49707 4.93278C7.61968 5.71674 7.74329 6.34561 7.86719 6.82536C8.53643 5.38771 10.5606 5.14131 11.5234 6.48552L11.9277 7.05095L12.0088 7.15056C12.2102 7.36987 12.5006 7.50004 12.8105 7.50017H14.25C14.6642 7.50019 15 7.83599 15 8.25017C15 8.66436 14.6642 9.00014 14.25 9.00017H12.8105C11.9774 9.00002 11.1922 8.60063 10.708 7.924L10.3037 7.35857C10.0328 6.98197 9.45228 7.031 9.23926 7.43376L9.20215 7.51872C9.08595 7.84414 8.95869 8.16405 8.83008 8.41228C8.7677 8.53265 8.6879 8.67173 8.58789 8.79021C8.5377 8.84967 8.46234 8.92777 8.36035 8.99528C8.25848 9.06265 8.08732 9.14635 7.86523 9.14079C7.33809 9.12696 7.03649 8.72173 6.90234 8.50017C6.74131 8.23415 6.61088 7.88736 6.49805 7.50114C6.27257 6.72927 6.0664 5.61743 5.87402 4.18962L4.6748 7.34685C4.29456 8.34567 3.33075 9.00114 2.26172 9.00114H1.75195C1.33777 9.00111 1.00195 8.66534 1.00195 8.25114C1.00199 7.83698 1.33779 7.50118 1.75195 7.50114H2.26172C2.71652 7.50114 3.11658 7.22257 3.27246 6.81364L4.49805 3.59001Z" fill="black"/>
</svg>

<!-- This Source Code Form is subject to the terms of the Mozilla Public
   - License, v. 2.0. If a copy of the MPL was not distributed with this
   - file, You can obtain one at http://mozilla.org/MPL/2.0/. -->
<svg xmlns="http://www.w3.org/2000/svg" width="16" height="16" fill="context-fill" fill-opacity="context-fill-opacity" viewBox="0 0 16 16">
    <path d="M3.75 11a.75.75 0 0 1 0 1.5h-2a.75.75 0 0 1 0-1.5zM9 11a.75.75 0 0 1 0 1.5H7A.75.75 0 0 1 7 11zM14.25 11a.75.75 0 0 1 0 1.5h-2a.75.75 0 0 1 0-1.5zM4.498 3.59c.537-1.414 2.525-1.168 2.83.201l.025.137.144 1.005q.184 1.175.37 1.892c.67-1.437 2.694-1.684 3.656-.34l.405.566.08.1c.202.219.493.349.803.35h1.439a.75.75 0 0 1 0 1.5h-1.44c-.833-.001-1.618-.4-2.102-1.077l-.404-.565a.632.632 0 0 0-1.065.075l-.037.085a8 8 0 0 1-.372.893c-.062.12-.142.26-.242.378-.05.06-.126.138-.228.205a.86.86 0 0 1-.495.146c-.527-.014-.829-.42-.963-.64-.16-.267-.291-.614-.404-1-.225-.772-.432-1.884-.624-3.311l-1.2 3.157A2.58 2.58 0 0 1 2.263 9h-.51a.75.75 0 0 1 0-1.5h.51c.455 0 .855-.278 1.01-.687z" />
</svg>
